layout/main/dist/assets/main/img/services/frontend.svg

<svg width="100" height="100" viewBox="0 0 100 100" fill="none" xmlns="http://www.w3.org/2000/svg">
<g opacity="0.6">
<path d="M43.6875 49.4202L32.2188 32.2627L20.7656 49.4202H43.6875Z" fill="#009FFF"/>
<path d="M72.7969 52.5391L60.7188 97.7726L60.8125 98.1313L97.3594 52.5391H72.7969Z" fill="#C4A2FC"/>
<path d="M72.7969 52.5391L60.7188 97.7726L60.8125 98.1313L97.3594 52.5391H72.7969Z" fill="url(#paint0_linear)"/>
<path d="M45.4063 52.5391H20.8438L57.3906 98.1313L57.4844 97.7726L45.4063 52.5391Z" fill="#C4A2FC"/>
<path d="M45.4063 52.5391H20.8438L57.3906 98.1313L57.4844 97.7726L45.4063 52.5391Z" fill="url(#paint1_linear)"/>
<path d="M46.5937 48.1716L57.2187 32.2619L56.1875 30.7021H34.9375L46.5937 48.1716Z" fill="#009FFF"/>
<path d="M49.5156 49.4195H68.6875L59.1094 35.0696L49.5156 49.4195Z" fill="#009FFF"/>
<path d="M71.6094 48.1716L83.2656 30.7021H62.0156L60.9844 32.2619L71.6094 48.1716Z" fill="#009FFF"/>
<path d="M74.5156 49.4202H97.4375L85.9844 32.2627L74.5156 49.4202Z" fill="#009FFF"/>
<path d="M69.5625 52.5391H48.6406L59.1094 91.7206L69.5625 52.5391Z" fill="#C4A2FC"/>
<path d="M69.5625 52.5391H48.6406L59.1094 91.7206L69.5625 52.5391Z" fill="url(#paint2_linear)"/>
</g>
<path d="M55.7969 14.3561L43.2969 1.87787C42.9974 1.59285 42.6012 1.43128 42.1875 1.42554H4.6875C3.4443 1.42554 2.25201 1.91854 1.37294 2.79608C0.49386 3.67363 0 4.86383 0 6.10487V74.735C0 75.9761 0.49386 77.1663 1.37294 78.0438C2.25201 78.9213 3.4443 79.4144 4.6875 79.4144H51.5625C52.8057 79.4144 53.998 78.9213 54.8771 78.0438C55.7561 77.1663 56.25 75.9761 56.25 74.735V15.4635C56.2442 15.0505 56.0824 14.655 55.7969 14.3561ZM43.75 6.74437L50.9219 13.9037H43.75V6.74437ZM53.125 74.735C53.125 75.1487 52.9604 75.5454 52.6674 75.838C52.3743 76.1305 51.9769 76.2948 51.5625 76.2948H4.6875C4.2731 76.2948 3.87567 76.1305 3.58265 75.838C3.28962 75.5454 3.125 75.1487 3.125 74.735V6.10487C3.125 5.69119 3.28962 5.29445 3.58265 5.00194C3.87567 4.70942 4.2731 4.54509 4.6875 4.54509H40.625V15.4635C40.625 15.8772 40.7896 16.2739 41.0826 16.5665C41.3757 16.859 41.7731 17.0233 42.1875 17.0233H53.125V74.735Z" fill="white"/>
<path d="M11.2187 40.1857L18.5 28.7837C18.624 28.6119 18.7116 28.4167 18.7576 28.2099C18.8035 28.0031 18.8068 27.7892 18.7673 27.5811C18.7277 27.3731 18.6461 27.1752 18.5274 26.9997C18.4088 26.8241 18.2556 26.6745 18.0771 26.56C17.8986 26.4455 17.6987 26.3684 17.4894 26.3335C17.2802 26.2987 17.066 26.3067 16.86 26.3572C16.6539 26.4076 16.4603 26.4994 16.291 26.627C16.1216 26.7546 15.9801 26.9152 15.875 27.0992L8.06245 39.3278C7.90725 39.5757 7.82495 39.8622 7.82495 40.1545C7.82495 40.4468 7.90725 40.7333 8.06245 40.9812L15.875 53.709C16.1125 53.9915 16.4427 54.1808 16.8068 54.2433C17.1709 54.3059 17.5455 54.2376 17.8639 54.0505C18.1824 53.8635 18.4242 53.5699 18.5463 53.2218C18.6685 52.8737 18.6631 52.4937 18.5312 52.1492L11.2187 40.1857Z" fill="white"/>
<path d="M38.2187 26.6312C37.871 26.855 37.6265 27.2072 37.5386 27.6107C37.4507 28.0142 37.5267 28.436 37.7499 28.7837L45.0312 40.1857L37.7343 52.0868C37.6024 52.4313 37.597 52.8113 37.7192 53.1594C37.8413 53.5075 38.0831 53.8011 38.4016 53.9881C38.72 54.1751 39.0946 54.2434 39.4587 54.1809C39.8228 54.1184 40.153 53.929 40.3905 53.6465L48.203 40.9188C48.3582 40.6709 48.4405 40.3844 48.4405 40.0921C48.4405 39.7997 48.3582 39.5133 48.203 39.2654L40.3905 27.0367C40.1564 26.6955 39.796 26.461 39.3887 26.385C38.9814 26.3089 38.5605 26.3975 38.2187 26.6312Z" fill="white"/>
<path d="M33.6718 26.4909C33.481 26.4149 33.2771 26.3772 33.0717 26.38C32.8663 26.3828 32.6634 26.426 32.4747 26.5071C32.2861 26.5883 32.1153 26.7057 31.9721 26.8528C31.829 26.9999 31.7163 27.1738 31.6406 27.3644L21.7031 52.3208C21.5497 52.7055 21.5558 53.1353 21.7199 53.5155C21.884 53.8958 22.1927 54.1954 22.5781 54.3485C22.9635 54.5016 23.394 54.4955 23.7749 54.3317C24.1558 54.1679 24.456 53.8597 24.6093 53.475L34.5468 28.5186C34.6229 28.3281 34.6607 28.1245 34.6579 27.9195C34.6551 27.7144 34.6118 27.5119 34.5305 27.3236C34.4493 27.1353 34.3316 26.9648 34.1842 26.8219C34.0369 26.679 33.8628 26.5665 33.6718 26.4909Z" fill="white"/>
<defs>
<linearGradient id="paint0_linear" x1="79.0391" y1="52.5391" x2="79.0391" y2="98.1313" gradientUnits="userSpaceOnUse">
<stop stop-color="#009FFF"/>
<stop offset="0.536458" stop-color="#FC466B"/>
</linearGradient>
<linearGradient id="paint1_linear" x1="39.1641" y1="52.5391" x2="39.1641" y2="98.1313" gradientUnits="userSpaceOnUse">
<stop stop-color="#009FFF"/>
<stop offset="0.536458" stop-color="#FC466B"/>
</linearGradient>
<linearGradient id="paint2_linear" x1="59.1016" y1="52.5391" x2="59.1016" y2="91.7206" gradientUnits="userSpaceOnUse">
<stop stop-color="#009FFF"/>
<stop offset="0.536458" stop-color="#FC466B"/>
</linearGradient>
</defs>
</svg>

<svg width="100" height="100" viewBox="0 0 100 100" fill="none" xmlns="http://www.w3.org/2000/svg"><g opacity=".6"><path d="M43.688 49.42l-11.47-17.157L20.767 49.42h22.922z" fill="#009FFF"/><path d="M72.797 52.54L60.719 97.772l.093.358L97.36 52.54H72.797z" fill="#C4A2FC"/><path d="M72.797 52.54L60.719 97.772l.093.358L97.36 52.54H72.797z" fill="url(#paint0_linear)"/><path d="M45.406 52.54H20.844L57.39 98.13l.093-.358-12.078-45.234z" fill="#C4A2FC"/><path d="M45.406 52.54H20.844L57.39 98.13l.093-.358-12.078-45.234z" fill="url(#paint1_linear)"/><path d="M46.594 48.172l10.625-15.91-1.032-1.56h-21.25l11.657 17.47zm2.922 1.248h19.172l-9.579-14.35-9.593 14.35zm22.094-1.248l11.656-17.47h-21.25l-1.032 1.56 10.625 15.91zm2.906 1.248h22.921L85.984 32.263 74.516 49.42z" fill="#009FFF"/><path d="M69.563 52.54H48.64l10.468 39.18 10.453-39.18z" fill="#C4A2FC"/><path d="M69.563 52.54H48.64l10.468 39.18 10.453-39.18z" fill="url(#paint2_linear)"/></g><path d="M55.797 14.356l-12.5-12.478a1.642 1.642 0 00-1.11-.452h-37.5a4.692 4.692 0 00-3.314 1.37A4.675 4.675 0 000 6.105v68.63c0 1.241.494 2.431 1.373 3.309a4.692 4.692 0 003.315 1.37h46.874a4.692 4.692 0 003.315-1.37 4.675 4.675 0 001.373-3.309V15.463a1.636 1.636 0 00-.453-1.107zM43.75 6.744l7.172 7.16H43.75v-7.16zm9.375 67.991a1.559 1.559 0 01-1.563 1.56H4.688a1.564 1.564 0 01-1.563-1.56V6.105a1.558 1.558 0 011.563-1.56h35.937v10.918a1.559 1.559 0 001.563 1.56h10.937v57.712z" fill="#fff"/><path d="M11.219 40.186L18.5 28.784a1.558 1.558 0 00-1.64-2.427 1.562 1.562 0 00-.985.742L8.062 39.328a1.558 1.558 0 000 1.653l7.813 12.728a1.563 1.563 0 002.656-1.56L11.22 40.186zm27-13.555a1.56 1.56 0 00-.47 2.153l7.282 11.402-7.297 11.9a1.557 1.557 0 00.668 1.902 1.565 1.565 0 001.989-.341l7.812-12.728a1.558 1.558 0 000-1.654L40.39 27.037a1.562 1.562 0 00-2.171-.406zm-4.547-.141a1.564 1.564 0 00-2.031.874l-9.938 24.957a1.558 1.558 0 00.875 2.028 1.566 1.566 0 002.031-.874l9.938-24.956a1.558 1.558 0 00-.875-2.028z" fill="#fff"/><defs><linearGradient id="paint0_linear" x1="79.039" y1="52.539" x2="79.039" y2="98.131" gradientUnits="userSpaceOnUse"><stop stop-color="#009FFF"/><stop offset=".536" stop-color="#FC466B"/></linearGradient><linearGradient id="paint1_linear" x1="39.164" y1="52.539" x2="39.164" y2="98.131" gradientUnits="userSpaceOnUse"><stop stop-color="#009FFF"/><stop offset=".536" stop-color="#FC466B"/></linearGradient><linearGradient id="paint2_linear" x1="59.102" y1="52.539" x2="59.102" y2="91.721" gradientUnits="userSpaceOnUse"><stop stop-color="#009FFF"/><stop offset=".536" stop-color="#FC466B"/></linearGradient></defs></svg>
